!!!COM: Charles Gounod
!!!CNT: Francais
!!!TXO: Francais
!!!OTL: De/part
!!!ODT: 1865/
!!!LYR: E/mile Augier
!!!ENC: Jacob Pegg
!!!YOR: Romantic French Song 1830-1870 -David Tunley, ed.,
!!!YOR: New York: Garland Publishing, Inc., 1995, Vol. 5
!!NB: Vocal melody and text only encoded.
!!NB: First instance of melodic material only encoded.
**kern	**silbe
*clef G2	*
*k[b-e-a-]	*
*M2/4	*
*MM[allegretto]	*
!!created: 6/10/03 22:17
!!proofed and posted: 6/11/03 10:01
=7	=7
4r	.
8r	.
{8b-	{Je
=8	=8
4a-	veux
8.g	ou-
16g	-bli-
=9	=9
8f}	-er,}
8r	.
{8.cc	{ou-
16cc	-bli-
=10	=10
4.b-	-er
8a-	que
=11	=11
4g	j'ai-
8g}	-me,}
8r	.
=12	=12
{8cc	{Em-
8dd	-por-
8ff	-tez~
8ee-	~moi
=13	=13
8ee-}	loin,}
16r	.
{16b-	{a-
8b-}	-mis,}
8r	.
=14	=14
{8gg	{Em-
8an	-por-
8cc	-tez~
8ee-	~moi
=15	=15
8dd}	loin,}
8r	.
{8.f#	{loin
16an	d'i-
=16	=16
4g}	-ci,}
8r	.
{8g	{En
=17	=17
8b-	Flan-
8a-}	-dre,}
8r	.
{16an	{en
16an	Es-
=18	=18
8cc	-pa-
8b-}	-gne,}
8r	.
{8bn	{a\
=19	=19
8dd	Na-
8cc}	-ple,}
8r	.
{16dd	{en
16dd	Bo-
=20	=20
8ff	-he^-
8ee-}	-me,}
8r	.
{8ee-	{Si
=21	=21
4gg-	loin
8ff	qu'en
8ee-	che-
=22	=22
4ee-	-min
8dd	res-
8cc	-te
=23	=23
8.ee-	mon
16b-	sou-
[4b-	-ci!
=24	=24
4b-_	|
8b-]}	|}
8r	.
=25	=25
*M4/4	*
2r;	.
2r;	.
=26	=26
*MM[allegro]	*
2r	.
{8a-	{Que
8a-	res-
8a-	-ter-
8a-	-a~
=27	=27
8a-	~t'il
8g	en
[4g	moi,
8g]}	|}
8r	.
{8.g	{de
16g	moi~
=28	=28
4dd	~me^-
8cc}	-me,}
8r	.
{8cc	{Quand
8cc	a\
8cc	m'en
8dd	gue/-
=29	=29
(4cc	-rir
4b-)}	|}
8r	.
{8an	{a\
8an	m'en
8b-	gue/-
=30	=30
(4an	-rir
8g)	|
8g	j'au-
4b-	-rai
8g	re/-
8a-	-us-
=31	=31
*k[b-e-]	*
*M2/4	*
*MM[allegretto]	*
[4f	-si?
8f]}	|}
8r	.
=32	=32
4r	.
8r	.
{8ff	{N'im-
=33	=33
4ff	-por-
8b-}	-te,}
8r	.
=34	=34
4r	.
8r	.
{8cc	{n'in-
=35	=35
4cc	-por-
8f}	-te,}
{8ee-	{je
=36	=36
8dd	veux
8cc	fer-
8b-	-mer
16a	ma
16a	bles-
=37	=37
8b-	-su-
16f}	-re}
{16f	{Les
8g	lon-
16a	-gues
16a	dou-
=38	=38
8b-	-leurs
16cc	ne
16cc	sont
8dd	pas
8een	mon
=39	=39
8ff}	lot!}
16r	.
{16cc	{Al-
8cc	-lons,
16r	.
16cc	je
=40	=40
8.cc	veux
16cc	fer-
8cc	-mer
16cc	ma
16cc	bles-
=41	=41
4cc	-su-
8f}	-re,}
16r	.
{16ff	{Par-
=42	=42
[2ff	-tons!
=43	=43
8ff]}	|}
16r	.
{16b-	{Al-
8dd	-lons
16b-	par
16b-	pa-
=44	=44
8.dd	-ys
16ff	cou-
8ff	-rir
16dd	l'a-
16b-	-ven-
=45	=45
8a	-tu-
16a}	-re,}
16r	.
{16cc	{Pour
16cc	nous
16cc	se-
16cc	-cou-
=46	=46
8.ff	-rer
16cc	par-
8dd	-tons
16ee-	au
16ee-	ga-
=47	=47
[4dd	-lop!
8dd]}	|}
8r;	.
=48	=48
*M4/4	*
*MM[allegro]	*
2r	.
{8cc	{Sans
8bn	te
8dd	dire
8cc	a-
=49	=49
[4f	-dieu
8f]}	|}
8r	.
{8ee-	{che\-
8ee-	-re
8ee-	cre/-
8ee-	-a-
=50	=50
4ee-	-tu-
8dd}	-re!}
8r	.
{8ff	{Car
8dd	mon
8b-	coeur
8f	fon-
=51	=51
4g-}	-drait,}
8r	.
{8ee-	{fon-
8dd	-drait
4cc	en
8b-	san-
=52	=52
*M2/4	*
*MM[allegretto]	*
[4b-	-glot!
8b-]}	|}
8r	.
=53	=53
4r	.
{16b-	{Nous
16b-	re-
16b-	-po-
16b-	-se-
=54	=54
8g-}	-rons,}
16r	.
{16b-	{la
8b-	course
16b-	as-
16b-	-sou-
=55	=55
4ee-	-vi-
8b-}	-e,}
8r	.
=56	=56
{16an	{Dans
16an	le
16an	ser-
16an	-po-
8cc}	-let,}
16r	.
{16cc	{le
=57	=57
[4ee-	baume
8ee-]	|
16a	et
16a	le
=58	=58
[4b-	thym!
8b-]}	|}
8r	.
=59	=59
{4.dd	{Mais
8b-	si
=60	=60
8a	d'en
8g	cueil-
4g	-lir
=61	=61
8ee-	il
8dd	me
8cc	prend
8b-	en-
=62	=62
4b-	-vi-
8a}	-e}
8r	.
=63	=63
{8ff	{De/-
8dd	-tour-
8b-	-nez
8a-	mes
=64	=64
4g-	doigts
8ee-	d'un
8ee-	fa-
=65	=65
4.gg-	-tal
8ee-	bu-
=66	=66
4dd}	-tin}
4r	.
=67	=67
{8dd	{Car
8cc	ce
8b-	fut
8a	ain-
=68	=68
4g}	-si}
4r	.
=69	=69
{8ff	{qu'el-
8ee-	-le
8dd	prit
8cc	ma
=70	=70
4cc	vi-
8b-}	-e,}
8r	.
=71	=71
{8b-	{Sans
8g	en
8a	rien
8cc	sa-
=72	=72
[4b-	-voir
8b-]}	|}
8r	.
=73	=73
{8b-	{par
8g	un
8a	frais
8cc	ma-
=74	=74
4b-}	-tin!}
4r	.
=75	=75
2r	.
=76	=76
{8b-	{J'e/-
8dd-	-tais
8cc-	a\
8a-	ge-
=77	=77
[4g-	-noux
8g-]}	|}
8r	.
=78	=78
{8ee-	{par-
8cc-	-mi
8dd-	la
8ee-	bru-
=79	=79
2dd-	-ye\-
=80	=80
4cc-}	-re...}
4r;	.
=81	=81
*k[b-e-a-]	*
4r	.
8r	.
{8cc-	{Par-
=82	=82
8cc-	-tons,
16a-	mes
16f	a-
8f}	-mis,}
8r	.
=83	=83
8r	.
{8cc-	{par-
[4ddn	-tons!
=84	=84
8ddn]}	|}
16r	.
{16ddn	{j'ai
8ddn	soif
16ddn	de
16ddn	cou-
=85	=85
[2ff	-rir.
=86	=86
4ff]}	|}
4r	.
=87	=87
{4ff#	{Que
8.f#	mon
16bn	che-
=88	=88
4an	-val
(12f#	jet-
12an)	-te
12dd	au
=89	=89
4ff#	vent
(12ff#	sa-
12een)	|
12dd	-cri-
=90	=90
4ff#	-nie\-
8een}	-re,}
8r	.
=91	=91
{4een	{Que
(12bn	mon
12cc#)	|
12dd	che-
=92	=92
4cc#	-val
(12een	jette
12dd)	|
12bn	au
=93	=93
4an	vent
8.een	sa
16ff#	cri-
=94	=94
4een	-nie\-
8dd}	-re,}
16r	.
{16dd	{Vo-
=95	=95
[4dd	-yons
12dd]	|
12cc#	l'ho-
12dd	-ri-
=96	=96
[4dd	-zon
12dd]	|
12cc#	de-
12dd	-vant
=97	=97
[4dd	nous
8dd]	|
8dd	s'ou-
=98	=98
[4ffn	-vrir.
8ffn]}	|}
8r	.
=99	=99
8r	.
{8gg-	{Par-
[4gg-	-tons
=100	=100
4gg-_	|
8gg-]}	|}
8r	.
=101	=101
*M4/4	*
1r	.
=102	=102
{[4gg-	{ah
8gg-]}	|}
8r	.
8r	.
{8ff	{par-
8ee-	-tez
8dd-	sans
=103	=103
[4ccn	moi!
8ccn]}	|}
8r	.
2r	.
=104	=104
{[4ee-	{ah!
8ee-]}	|}
8r	.
8r	.
{8ddn	{par-
8cc	-tez
8b-	sans
=105	=105
[4an	moi,
8an]}	|}
8r	.
{8ff	{l'a^-
8dd	-me
8b-	pri-
8a-	-son-
=106	=106
4a-	-nie\-
8g}	-re,}
8r	.
{8ee-	{L'a^-
8b-	-me
8a-	pri-
8g	-son-
=107	=107
4g	-nie\-
8f}	-re}
8r	.
{8b-	{Ai-
8g	-me
8a-	sa
8b-	pri-
=108	=108
4cc-}	-son...}
8r	.
{8f	{et
8a-	veut
4a-	y
8g	mou-
=109	=109
*M2/4	*
[2g	-rir!
=110	=110
4g]}	|}
4r	.
*-	*-
